icons/svg/transport/motorway_junction.svg

<?xml version="1.0" encoding="UTF-8" standalone="no"?>
<!-- Created with Inkscape (http://www.inkscape.org/) -->

<svg
   xmlns:dc="http://purl.org/dc/elements/1.1/"
   xmlns:cc="http://creativecommons.org/ns#"
   xmlns:rdf="http://www.w3.org/1999/02/22-rdf-syntax-ns#"
   xmlns:svg="http://www.w3.org/2000/svg"
   xmlns="http://www.w3.org/2000/svg"
   xmlns:sodipodi="http://sodipodi.sourceforge.net/DTD/sodipodi-0.dtd"
   xmlns:inkscape="http://www.inkscape.org/namespaces/inkscape"
   version="1.0"
   width="580"
   height="580"
   id="svg2"
   sodipodi:version="0.32"
   inkscape:version="0.91 r"
   sodipodi:docname="motorway_junction.svg"
   inkscape:output_extension="org.inkscape.output.svg.inkscape">
  <metadata
     id="metadata10">
    <rdf:RDF>
      <cc:Work
         rdf:about="">
        <dc:format>image/svg+xml</dc:format>
        <dc:type
           rdf:resource="http://purl.org/dc/dcmitype/StillImage" />
        <cc:license
           rdf:resource="http://web.resource.org/cc/PublicDomain" />
        <dc:language>en</dc:language>
        <dc:title />
      </cc:Work>
    </rdf:RDF>
  </metadata>
  <sodipodi:namedview
     inkscape:window-height="1006"
     inkscape:window-width="1920"
     inkscape:pageshadow="2"
     inkscape:pageopacity="0.0"
     guidetolerance="10.0"
     gridtolerance="10.0"
     objecttolerance="10.0"
     borderopacity="1.0"
     bordercolor="#666666"
     pagecolor="#ffffff"
     id="base"
     showgrid="false"
     inkscape:zoom="0.5"
     inkscape:cx="151.41552"
     inkscape:cy="353.13541"
     inkscape:window-x="1680"
     inkscape:window-y="0"
     inkscape:current-layer="svg2"
     inkscape:window-maximized="1" />
  <defs
     id="defs4">
    <inkscape:perspective
       sodipodi:type="inkscape:persp3d"
       inkscape:vp_x="0 : 290 : 1"
       inkscape:vp_y="0 : 1000 : 0"
       inkscape:vp_z="580 : 290 : 1"
       inkscape:persp3d-origin="290 : 193.33333 : 1"
       id="perspective12" />
    <style
       type="text/css"
       id="style6">
   
    .fil0 {fill:#EF7900}
   
  </style>
    <inkscape:perspective
       id="perspective6807"
       inkscape:persp3d-origin="29.116032 : 19.410688 : 1"
       inkscape:vp_z="58.232063 : 29.116032 : 1"
       inkscape:vp_y="0 : 1000 : 0"
       inkscape:vp_x="0 : 29.116032 : 1"
       sodipodi:type="inkscape:persp3d" />
    <inkscape:perspective
       id="perspective6954"
       inkscape:persp3d-origin="290 : 193.33333 : 1"
       inkscape:vp_z="580 : 290 : 1"
       inkscape:vp_y="0 : 1000 : 0"
       inkscape:vp_x="0 : 290 : 1"
       sodipodi:type="inkscape:persp3d" />
    <marker
       viewBox="0 0 10 10"
       refY="5"
       refX="10"
       orient="auto"
       markerWidth="4"
       markerUnits="strokeWidth"
       markerHeight="3"
       id="ArrowStart">
      <path
         id="path2295"
         d="M 10 0 L 0 5 L 10 10 z" />
    </marker>
    <marker
       viewBox="0 0 10 10"
       refY="5"
       refX="0"
       orient="auto"
       markerWidth="4"
       markerUnits="strokeWidth"
       markerHeight="3"
       id="ArrowEnd">
      <path
         id="path2292"
         d="M 0 0 L 10 5 L 0 10 z" />
    </marker>
    <inkscape:perspective
       id="perspective7597"
       inkscape:persp3d-origin="178.5405 : 158.483 : 1"
       inkscape:vp_z="357.08099 : 237.7245 : 1"
       inkscape:vp_y="0 : 1000 : 0"
       inkscape:vp_x="0 : 237.7245 : 1"
       sodipodi:type="inkscape:persp3d" />
    <marker
       viewBox="0 0 10 10"
       refY="5"
       refX="10"
       orient="auto"
       markerWidth="4"
       markerUnits="strokeWidth"
       markerHeight="3"
       id="marker8025">
      <path
         id="path8027"
         d="M 10,0 L 0,5 L 10,10 L 10,0 z " />
    </marker>
    <marker
       viewBox="0 0 10 10"
       refY="5"
       refX="0"
       orient="auto"
       markerWidth="4"
       markerUnits="strokeWidth"
       markerHeight="3"
       id="marker8021">
      <path
         id="path8023"
         d="M 0,0 L 10,5 L 0,10 L 0,0 z " />
    </marker>
    <inkscape:perspective
       id="perspective8018"
       inkscape:persp3d-origin="205.96652 : 131.6262 : 1"
       inkscape:vp_z="411.93304 : 197.4393 : 1"
       inkscape:vp_y="0 : 1000 : 0"
       inkscape:vp_x="0 : 197.4393 : 1"
       sodipodi:type="inkscape:persp3d" />
    <inkscape:perspective
       id="perspective8269"
       inkscape:persp3d-origin="99.087723 : 77.339676 : 1"
       inkscape:vp_z="198.17545 : 116.00951 : 1"
       inkscape:vp_y="0 : 1000 : 0"
       inkscape:vp_x="0 : 116.00951 : 1"
       sodipodi:type="inkscape:persp3d" />
  </defs>
  <g
     id="g1327">
    <path
       d="M 66.275,1.768 C 24.94,1.768 1.704,23.139 1.704,66.804 L 1.704,516.927 C 1.704,557.771 22.598,579.156 63.896,579.156 L 515.92,579.156 C 557.227,579.156 578.149,558.84 578.149,516.927 L 578.149,66.804 C 578.149,24.203 557.227,1.768 514.627,1.768 C 514.624,1.768 66.133,1.625 66.275,1.768 z"
       style="fill:#111111;stroke:#eeeeee;stroke-width:3.40799999"
       id="path1329" />
  </g>
  <g
     id="g2319"
     transform="translate(879.29125,36.805119)">
    <path
       id="path2323"
       style="fill:#ffffff;stroke:none"
       d="" />
  </g>
  <g
     id="g2325"
     transform="translate(879.29125,36.805119)">
    <path
       id="path2329"
       style="fill:#ffffff;stroke:none"
       d="" />
  </g>
  <polygon
     points="10,1.6 0,0 1.6,10 "
     id="polygon9"
     transform="matrix(-13.984394,-1.6559576,-3.5765363,13.636881,557.73739,82.719656)"
     style="fill:#ffffff;fill-opacity:1" />
  <path
     inkscape:connector-curvature="0"
     d="m 331.29957,222.64393 c 9.80527,-10.55242 34.69776,-44.74229 51.96154,-55.79773 l 97.60393,-68.113636 35.50514,42.561066 -112.45319,84.73063 c -27.41276,20.65482 -29.30767,55.33542 -43.0027,77.39921 -3.09257,-30.85618 -16.34329,-50.29694 -29.61472,-80.77954 z"
     id="path11"
     style="fill:#ffffff;fill-opacity:1"
     sodipodi:nodetypes="ccccscc" />
  <path
     style="color:#000000;clip-rule:evenodd;display:inline;overflow:visible;visibility:visible;opacity:1;isolation:auto;mix-blend-mode:normal;color-interpolation:sRGB;color-interpolation-filters:linearRGB;solid-color:#000000;solid-opacity:1;fill:#ffffff;fill-opacity:1;fill-rule:evenodd;stroke:none;stroke-width:30;stroke-linecap:butt;stroke-linejoin:miter;stroke-miterlimit:4;stroke-dasharray:none;stroke-dashoffset:0;stroke-opacity:1;marker:none;color-rendering:auto;image-rendering:auto;shape-rendering:auto;text-rendering:auto;enable-background:accumulate"
     d="m 167.49879,63.340156 c -0.0101,0.0069 -0.0203,0.02544 -0.0281,0.05914 L 41.638672,513.88582 c -0.465333,1.66592 0.554932,2.85547 1.24414,2.85547 l 172.617188,0 0,-452.841797 -47.59022,-0.07738 c -0.21259,-3.45e-4 -0.34049,-0.529987 -0.41099,-0.481953 z m 136.96483,0 c -0.0705,-0.04803 -0.1984,0.481646 -0.41099,0.481953 l -53.55263,0.07738 0,452.841797 178.57812,0 c 0.68926,0 1.70949,-1.18954 1.24415,-2.85547 L 304.49023,63.399292 c -0.008,-0.03369 -0.0165,-0.05227 -0.0266,-0.05914 z"
     id="rect4205"
     inkscape:connector-curvature="0"
     sodipodi:nodetypes="ccssccsccsccssccc" />
</svg>

<svg width="580" height="580" viewBox="0 0 580 580" fill="none" xmlns="http://www.w3.org/2000/svg">
<g clip-path="url(#clip0)">
<path d="M66.2751 1.76766C24.9401 1.76766 1.7041 23.1387 1.7041 66.8037V516.927C1.7041 557.771 22.5981 579.156 63.8961 579.156H515.92C557.227 579.156 578.149 558.84 578.149 516.927V66.8037C578.149 24.2027 557.227 1.76766 514.627 1.76766C514.624 1.76766 66.1331 1.62466 66.2751 1.76766Z" fill="#111111" stroke="#EEEEEE" stroke-width="3.408"/>
<path d="M412.171 87.9792L557.737 82.7197L499.597 216.439L412.171 87.9792Z" fill="white"/>
<path d="M331.3 222.644C341.105 212.091 365.998 177.902 383.261 166.846L480.865 98.7324L516.37 141.293L403.917 226.024C376.504 246.679 374.61 281.36 360.915 303.423C357.822 272.567 344.571 253.126 331.3 222.644Z" fill="white"/>
<path fill-rule="evenodd" clip-rule="evenodd" d="M167.499 63.34C167.489 63.3469 167.479 63.3654 167.471 63.3991L41.639 513.886C41.1737 515.552 42.194 516.741 42.8832 516.741H215.5V63.8993L167.91 63.822C167.698 63.8216 167.57 63.292 167.499 63.34V63.34ZM304.464 63.34C304.393 63.292 304.266 63.8216 304.053 63.8219L250.5 63.8993V516.741H429.078C429.768 516.741 430.788 515.552 430.323 513.886L304.491 63.3991C304.483 63.3654 304.474 63.3469 304.464 63.34V63.34Z" fill="white"/>
</g>
<defs>
<clipPath id="clip0">
<path d="M0 0H580V580H0V0Z" fill="white"/>
</clipPath>
</defs>
</svg>
